src/svgs/ms-teams.svg

<svg xmlns="http://www.w3.org/2000/svg" viewBox="0 0 24 24" width="512" height="512"><path d="M17 6a2 2 0 112 2 2 2 0 01-2-2zm4 4h-2.276A1.971 1.971 0 0119 11v6a5.96 5.96 0 01-.338 1.966A2.909 2.909 0 0019 19a3 3 0 003-3v-5a1 1 0 00-1-1zm-5 0h-3v5a2 2 0 01-2 2H7a5 5 0 0010 0v-6a1 1 0 00-1-1zm-4-8a3 3 0 00-3 3h2a2 2 0 012 2v.816A2.993 2.993 0 0012 2zm0 5v8a1 1 0 01-1 1H3a1 1 0 01-1-1V7a1 1 0 011-1h8a1 1 0 011 1zM9 8H5v1h1.5v5h1V9H9z"/></svg>

<svg xmlns="http://www.w3.org/2000/svg" viewBox="0 0 24 24"><path d="M17,6a2,2,0,1,1,2,2A2,2,0,0,1,17,6Zm4,4H18.724A1.971,1.971,0,0,1,19,11V17a5.96,5.96,0,0,1-.338,1.966A2.909,2.909,0,0,0,19,19a3,3,0,0,0,3-3V11A1,1,0,0,0,21,10Zm-5,0H13v5a2,2,0,0,1-2,2H7a5,5,0,0,0,10,0V11A1,1,0,0,0,16,10ZM12,2A3,3,0,0,0,9,5h2a2,2,0,0,1,2,2v.816A2.993,2.993,0,0,0,12,2Zm0,5v8a1,1,0,0,1-1,1H3a1,1,0,0,1-1-1V7A1,1,0,0,1,3,6h8A1,1,0,0,1,12,7ZM9,8H5V9H6.5v5h1V9H9Z"/></svg>
